svg/nature/tree_2_fill.svg

<?xml version="1.0" encoding="UTF-8"?>
<svg width="24px" height="24px" viewBox="0 0 24 24" version="1.1" xmlns="http://www.w3.org/2000/svg" xmlns:xlink="http://www.w3.org/1999/xlink">
    <title>tree_2_fill</title>
    <g id="Icon" stroke="none" stroke-width="1" fill="none" fill-rule="evenodd">
        <g id="Nature" transform="translate(-720.000000, -50.000000)">
            <g id="tree_2_fill" transform="translate(720.000000, 50.000000)">
                <path d="M24,0 L24,24 L0,24 L0,0 L24,0 Z M12.5935,23.2578 L12.5819,23.2595 L12.5109,23.295 L12.4919,23.2987 L12.4767,23.295 L12.4057,23.2595 C12.3958,23.2564 12.387,23.259 12.3821,23.2649 L12.378,23.2758 L12.3609,23.7031 L12.3659,23.7235 L12.3769,23.7357 L12.4805,23.8097 L12.4953,23.8136 L12.5071,23.8097 L12.6107,23.7357 L12.6233,23.7197 L12.6267,23.7031 L12.6096,23.2758 C12.6076,23.2657 12.601,23.2593 12.5935,23.2578 Z M12.8584,23.1453 L12.8445,23.1473 L12.6598,23.2397 L12.6499,23.2499 L12.6472,23.2611 L12.6651,23.6906 L12.6699,23.7034 L12.6784,23.7105 L12.8793,23.8032 C12.8914,23.8069 12.9022,23.803 12.9078,23.7952 L12.9118,23.7812 L12.8777,23.1665 C12.8753,23.1546 12.8674,23.147 12.8584,23.1453 Z M12.143,23.1473 C12.1332,23.1424 12.1222,23.1453 12.1156,23.1526 L12.1099,23.1665 L12.0758,23.7812 C12.0751,23.7927 12.0828,23.8019 12.0926,23.8046 L12.1083,23.8032 L12.3092,23.7105 L12.3186,23.7024 L12.3225,23.6906 L12.3404,23.2611 L12.3372,23.2485 L12.3278,23.2397 L12.143,23.1473 Z" id="MingCute" fill-rule="nonzero"></path>
                <path d="M4,10.5 C4,5.87168 7.51786,2 12,2 C16.4821,2 20,5.87168 20,10.5 C20,14.778 16.9945,18.4096 13,18.9348 L13,21 C13,21.5523 12.5523,22 12,22 C11.4477,22 11,21.5523 11,21 L11,18.9348 C7.00552,18.4096 4,14.778 4,10.5 Z M12,17 C12.3396,17 12.6738,16.9689 13,16.9091 L13,14.3204 L15.3137,11.0812 C15.6347,10.6318 15.5307,10.0072 15.0812,9.68622 C14.6318,9.36521 14.0073,9.46931 13.6863,9.91872 L11.8724,12.4581 L10.7071,11.2928 C10.3166,10.9023 9.68342,10.9023 9.29289,11.2928 C8.90237,11.6834 8.90237,12.3165 9.29289,12.7071 L11,14.4142 L11,16.9091 C11.3262,16.9689 11.6604,17 12,17 Z" id="形状" fill="#09244B"></path>
            </g>
        </g>
    </g>
</svg>

<svg xmlns="http://www.w3.org/2000/svg" width="24" height="24"><g fill="none" fill-rule="evenodd"><path d="M24 0v24H0V0h24ZM12.594 23.258l-.012.002-.071.035-.02.004-.014-.004-.071-.036c-.01-.003-.019 0-.024.006l-.004.01-.017.428.005.02.01.013.104.074.015.004.012-.004.104-.074.012-.016.004-.017-.017-.427c-.002-.01-.009-.017-.016-.018Zm.264-.113-.014.002-.184.093-.01.01-.003.011.018.43.005.012.008.008.201.092c.012.004.023 0 .029-.008l.004-.014-.034-.614c-.003-.012-.01-.02-.02-.022Zm-.715.002a.023.023 0 0 0-.027.006l-.006.014-.034.614c0 .012.007.02.017.024l.015-.002.201-.093.01-.008.003-.011.018-.43-.003-.012-.01-.01-.184-.092Z"/><path fill="#09244B" d="M4 10.5C4 5.872 7.518 2 12 2s8 3.872 8 8.5c0 4.278-3.006 7.91-7 8.435V21a1 1 0 1 1-2 0v-2.065c-3.994-.525-7-4.157-7-8.435Zm8 6.5c.34 0 .674-.031 1-.09v-2.59l2.314-3.239a1 1 0 1 0-1.628-1.162l-1.814 2.54-1.165-1.166a1 1 0 0 0-1.414 1.414L11 14.414v2.495c.326.06.66.091 1 .091Z"/></g></svg>
